collateral/WSOL.svg

<svg width="42" height="42" viewBox="0 0 42 42" fill="none" xmlns="http://www.w3.org/2000/svg">
<g clip-path="url(#clip0_1097_40607)">
<circle cx="21" cy="21" r="21" fill="url(#paint0_linear_1097_40607)"/>
<path fill-rule="evenodd" clip-rule="evenodd" d="M21 0C32.5986 0 42 9.40144 42 21C42 32.5986 32.5986 42 21 42C9.40144 42 0 32.5986 0 21C0 9.40144 9.40144 0 21 0ZM32.4266 25.6161H13.5712C13.3674 25.6158 13.1717 25.696 13.0266 25.8392L9.30169 29.5339C9.24761 29.5873 9.21071 29.6556 9.1957 29.7302C9.18069 29.8047 9.18826 29.882 9.21743 29.9522C9.24661 30.0224 9.29607 30.0823 9.35948 30.1242C9.42289 30.1661 9.49736 30.1881 9.57337 30.1875H28.4287C28.6326 30.1877 28.8283 30.1075 28.9734 29.9644L32.6983 26.2684C32.7519 26.2149 32.7884 26.1466 32.8032 26.0724C32.8179 25.9981 32.8103 25.9211 32.7811 25.8511C32.752 25.7812 32.7028 25.7215 32.6396 25.6797C32.5765 25.6378 32.5024 25.6157 32.4266 25.6161ZM28.4287 18.6703H9.57337L9.48413 18.6795C9.41755 18.6948 9.3563 18.7277 9.30674 18.7747C9.25719 18.8217 9.22116 18.8811 9.20239 18.9468C9.18362 19.0125 9.18282 19.082 9.20005 19.1481C9.21728 19.2142 9.25193 19.2745 9.30037 19.3226L13.0279 23.0186L13.1198 23.0974C13.251 23.1892 13.4085 23.2418 13.5712 23.2418H32.4266L32.5159 23.2326C32.5825 23.2173 32.6437 23.1844 32.6933 23.1374C32.7428 23.0904 32.7788 23.0309 32.7976 22.9652C32.8164 22.8996 32.8172 22.8301 32.7999 22.764C32.7827 22.6979 32.7481 22.6376 32.6996 22.5894L28.9721 18.8934L28.8802 18.8147C28.7485 18.7206 28.5906 18.6701 28.4287 18.6703ZM32.4266 11.8125H13.5712C13.3674 11.8123 13.1717 11.8925 13.0266 12.0356L9.30169 15.7316C9.24807 15.7851 9.21157 15.8534 9.19682 15.9276C9.18207 16.0019 9.18975 16.0789 9.21887 16.1489C9.24799 16.2188 9.29724 16.2785 9.36037 16.3203C9.42349 16.3622 9.49763 16.3843 9.57337 16.3839H28.4287C28.6326 16.3842 28.8283 16.304 28.9734 16.1608L32.6983 12.4661C32.7524 12.4127 32.7893 12.3444 32.8043 12.2698C32.8193 12.1953 32.8117 12.118 32.7826 12.0478C32.7534 11.9776 32.7039 11.9177 32.6405 11.8758C32.5771 11.8339 32.5026 11.8119 32.4266 11.8125Z" fill="black"/>
</g>
<defs>
<linearGradient id="paint0_linear_1097_40607" x1="26.5924" y1="14.038" x2="14.2663" y2="27.5054" gradientUnits="userSpaceOnUse">
<stop stop-color="#76F8A4"/>
<stop offset="0.540761" stop-color="#678FD3"/>
<stop offset="1" stop-color="#904BF7"/>
</linearGradient>
<clipPath id="clip0_1097_40607">
<rect width="42" height="42" fill="white"/>
</clipPath>
</defs>
</svg>

<svg width="42" height="42" fill="none" viewBox="0 0 42 42" xmlns="http://www.w3.org/2000/svg">
  <g clip-path="url(#a)">
    <circle cx="21" cy="21" r="21" fill="url(#b)"/>
    <path fill="#000" fill-rule="evenodd" d="M21 0c11.599 0 21 9.401 21 21s-9.401 21-21 21S0 32.599 0 21 9.401 0 21 0m11.427 25.616H13.57c-.204 0-.4.08-.544.223l-3.725 3.695a.382.382 0 0 0 .271.654H28.43c.204 0 .4-.08.544-.224l3.725-3.696a.383.383 0 0 0-.271-.652M28.43 18.67H9.573l-.089.01a.382.382 0 0 0-.184.643l3.728 3.696.092.078a.8.8 0 0 0 .451.145h18.856l.089-.01a.382.382 0 0 0 .184-.643l-3.728-3.696-.092-.078a.8.8 0 0 0-.451-.145m3.998-6.858H13.57c-.204 0-.4.08-.544.224l-3.725 3.696a.382.382 0 0 0 .271.652H28.43c.204 0 .4-.08.544-.223l3.725-3.695a.381.381 0 0 0-.271-.653" clip-rule="evenodd"/>
  </g>
  <defs>
    <linearGradient id="b" x1="26.592" x2="14.266" y1="14.038" y2="27.505" gradientUnits="userSpaceOnUse">
      <stop stop-color="#76F8A4"/>
      <stop offset=".541" stop-color="#678FD3"/>
      <stop offset="1" stop-color="#904BF7"/>
    </linearGradient>
    <clipPath id="a">
      <path fill="#fff" d="M0 0h42v42H0z"/>
    </clipPath>
  </defs>
</svg>
